X: 6809
T: Charleston, The
R: reel
M: 4/4
K: Amajor
~c3B cBAB|c2BA ~F3A|EAAG Acfc|ecBA GABd|
~c3B cBAB|c2BA ~F3A|EAAG Acfc|1 ecBc A3B:|2 ecBc A3g||
aefa e2cf|eAce ~f3g|aeea faec|dBBA BcdB|
c2ec cBAB|cABA ~F3A|EAAG Acfc|1 ecBc A3g:|2 ecBc A3B||

